assets/icons/long_bed.svg

<svg fill="none" height="48" viewBox="0 0 103 48" width="103" xmlns="http://www.w3.org/2000/svg"><linearGradient id="a" gradientUnits="userSpaceOnUse" x1="51.3799" x2="51.3799" y1="0" y2="48"><stop offset="0" stop-color="#c4c4c4"/><stop offset=".0001" stop-color="#18a0fb"/><stop offset="1" stop-color="#426bff"/></linearGradient><clipPath id="b"><path d="m0 0h102.745v48h-102.745z"/></clipPath><g clip-path="url(#b)"><path d="m4.77201 44.5341v3.4659h-4.183581v-4.1189c.684441.4271 1.475141.6534 2.281951.653zm95.11739 0h-1.916v3.4659h4.1836v-4.1189c-.68.4246-1.466.6507-2.2676.653zm2.8706-16.799v-.531c0-.7613-.303-1.4913-.841-2.0297-.538-.5383-1.268-.8407-2.0296-.8407h-97.01902c-.76127 0-1.49136.3024-2.029664.8407-.538301.5384-.840716 1.2684-.840716 2.0297v.531zm-102.76 1.2774v11.2375c0 .7613.302415 1.4914.840716 2.0297.538304.5383 1.268394.8407 2.029664.8407h97.01902c.7616 0 1.4916-.3024 2.0296-.8407s.841-1.2684.841-2.0297v-11.2375zm43.8523-14.2946c-5.4179-1.9949-18.9374-1.9949-24.348 0-2.5188.9257-7.3697 7.1258-4.5998 7.42 9.2211.9903 23.6232.7965 33.5404 0 2.7628-.2225-2.081-6.4943-4.5926-7.42zm45.7611-14.71784867h-76.4814c-3.32551-.00000055-6.51493 1.32056867-8.86711 3.67138867-2.35217 2.35083-3.674559 5.53949-3.676461 8.86506v11.0438c.686471-.4186 1.478091-.6327 2.281951-.6172h3.04261c.73005-1.2703 1.78138-2.3262 3.04849-3.0618 1.26712-.7356 2.70542-1.1249 4.17052-1.1289h.3301c.4055-.6955.8688-1.3556 1.385-1.9734.6476-.8018 1.3683-1.5417 2.1528-2.2102h-3.8679c-3.0866-.0038-6.06502 1.1365-8.35999 3.2005v-5.2528c.0019-2.2167.8833-4.34196 2.45069-5.90936 1.56739-1.56739 3.6927-2.44878 5.9093-2.45068h76.4814c2.2166.0019 4.3419.88329 5.9093 2.45068 1.5674 1.5674 2.4488 3.69266 2.4507 5.90936v5.2528c-2.295-2.064-5.2734-3.2043-8.36-3.2005h-4.729c1.4306 1.1748 2.6449 2.5907 3.588 4.1836h1.1625c1.4684.0024 2.9103.3909 4.1811 1.1264 1.2708.7356 2.3259 1.7923 3.0595 3.0643h3.0498c.8027-.002 1.5887.2245 2.2677.653v-11.0796c-.001-1.6497-.327-3.28299-.96-4.80636s-1.5608-2.90691-2.7293-4.0714-2.5552-2.08705-4.0807-2.714867c-1.5255-.627812-3.1599-.94854066-4.8096-.94382167zm-36.1668 16.79894867c.6476-.8018 1.3683-1.5417 2.1527-2.2102h-9.3287c1.432 1.1733 2.6465 2.5894 3.588 4.1836h2.2102c.4006-.6969.8617-1.3572 1.3778-1.9734zm29.0052-2.0811c-5.4179-1.9949-18.9374-1.9949-24.3552 0-2.5116.9257-7.3626 7.1258-4.5926 7.42 9.2139.9903 23.6232.7965 33.5404 0 2.7628-.2225-2.081-6.4943-4.5926-7.42z" fill="url(#a)"/></g></svg>

<svg width="103" height="48" viewBox="0 0 103 48" fill="none" xmlns="http://www.w3.org/2000/svg">
<g clip-path="url(#clip0_656_7715)">
<path d="M4.77201 44.5341V48H0.588429V43.8811C1.27287 44.3082 2.06357 44.5345 2.87038 44.5341H4.77201ZM99.8894 44.5341H97.9734V48H102.157V43.8811C101.477 44.3057 100.691 44.5318 99.8894 44.5341ZM102.76 27.7351V27.2041C102.76 26.4428 102.457 25.7128 101.919 25.1744C101.381 24.6361 100.651 24.3337 99.8894 24.3337H2.87038C2.10911 24.3337 1.37902 24.6361 0.840716 25.1744C0.302415 25.7128 0 26.4428 0 27.2041L0 27.7351H102.76ZM0 29.0125V40.25C0 41.0113 0.302415 41.7414 0.840716 42.2797C1.37902 42.818 2.10911 43.1204 2.87038 43.1204H99.8894C100.651 43.1204 101.381 42.818 101.919 42.2797C102.457 41.7414 102.76 41.0113 102.76 40.25V29.0125H0ZM43.8523 14.7179C38.4344 12.723 24.9149 12.723 19.5043 14.7179C16.9855 15.6436 12.1346 21.8437 14.9045 22.1379C24.1256 23.1282 38.5277 22.9344 48.4449 22.1379C51.2077 21.9154 46.3639 15.6436 43.8523 14.7179ZM89.6134 5.1326e-05H13.132C9.80649 5.07818e-05 6.61707 1.32062 4.26489 3.67144C1.91272 6.02227 0.590331 9.21093 0.588429 12.5365V23.5803C1.2749 23.1617 2.06652 22.9476 2.87038 22.9631H5.91299C6.64304 21.6928 7.69437 20.6369 8.96148 19.9013C10.2286 19.1657 11.6669 18.7764 13.132 18.7724H13.4621C13.8676 18.0769 14.3309 17.4168 14.8471 16.799C15.4947 15.9972 16.2154 15.2573 16.9999 14.5888H13.132C10.0454 14.585 7.06698 15.7253 4.77201 17.7893V12.5365C4.77391 10.3198 5.65531 8.19454 7.2227 6.62714C8.79009 5.05975 10.9154 4.17836 13.132 4.17646H89.6134C91.83 4.17836 93.9553 5.05975 95.5227 6.62714C97.0901 8.19454 97.9715 10.3198 97.9734 12.5365V17.7893C95.6784 15.7253 92.7 14.585 89.6134 14.5888H84.8844C86.315 15.7636 87.5293 17.1795 88.4724 18.7724H89.6349C91.1033 18.7748 92.5452 19.1633 93.816 19.8988C95.0868 20.6344 96.1419 21.6911 96.8755 22.9631H99.9253C100.728 22.9611 101.514 23.1876 102.193 23.6161V12.5365C102.192 10.8868 101.866 9.25351 101.233 7.73014C100.6 6.20677 99.6722 4.82323 98.5037 3.65874C97.3352 2.49425 95.9485 1.57169 94.423 0.943873C92.8975 0.316061 91.2631 -0.00466766 89.6134 5.1326e-05ZM53.4466 16.799C54.0942 15.9972 54.8149 15.2573 55.5993 14.5888H46.2706C47.7026 15.7621 48.9171 17.1782 49.8586 18.7724H52.0688C52.4694 18.0755 52.9305 17.4152 53.4466 16.799ZM82.4518 14.7179C77.0339 12.723 63.5144 12.723 58.0966 14.7179C55.585 15.6436 50.734 21.8437 53.504 22.1379C62.7179 23.1282 77.1272 22.9344 87.0444 22.1379C89.8072 21.9154 84.9634 15.6436 82.4518 14.7179Z" fill="url(#paint0_linear_656_7715)"/>
</g>
<defs>
<linearGradient id="paint0_linear_656_7715" x1="51.3799" y1="0" x2="51.3799" y2="48" gradientUnits="userSpaceOnUse">
<stop stop-color="#C4C4C4"/>
<stop offset="0.0001" stop-color="#18A0FB"/>
<stop offset="1" stop-color="#426BFF"/>
</linearGradient>
<clipPath id="clip0_656_7715">
<rect width="102.745" height="48" fill="white"/>
</clipPath>
</defs>
</svg>
